azure-icons/command-1101-Diagnostics.svg

<svg xmlns="http://www.w3.org/2000/svg" viewBox="0 0 14 14"><path d="M14 0v14H0V0zM1 1v8h1.2l.8-.9h.7l1.4 1.4L7 2.1a.2.2 0 01.2-.2h.6a.2.2 0 01.2.2l.8 3.3h1.5l.2.3L11 8h2V1zm12 12V9h-2.7v-.4l-.7-2.2H8.1L7.9 6l-.4-1.7-1.6 6.3-.2.3H5L3.4 9.2l-.7.7H1v3z"/></svg>

<svg xmlns="http://www.w3.org/2000/svg" viewBox="0 0 14 14"><title>Asset 19</title><path d="M14,0V14H0V0ZM1,1V9H2.2L3,8.1h.7L5.1,9.5,7,2.1a.2.2,0,0,1,.2-.2h.6a.2.2,0,0,1,.2.2l.8,3.3h1.5l.2.3L11,8h2V1ZM13,13V9H10.3V8.6L9.6,6.4H8.1L7.9,6,7.5,4.3,5.9,10.6l-.2.3H5L3.4,9.2l-.7.7H1v3Z"/></svg>
